X: 17583
T: Hobble The Boutches
R: reel
M: 4/4
K: Dmajor
|:A|"D" d2 AF dAAF|"E"efed "A"cABc|"D"defe dedB|"A"ABAF "D"EFDA|
dF F2 dF F2|"E"efed "A"cABc|"D"defe dedB|"A"ABAG "D"FD D:|
|:f|"D" a2 fa dafa|"G"b2 gb "E"ebgb|"D"a2 fa dafa|"G"gbag "A"fddf|
"D"a2 fa dafa|"G"b2 gb "E"ebgb|"Bm"agfe "D"dedB|"A"ABAG "D"FD D:|

